X: 34161
T: Reel For Rubik
R: reel
M: 4/4
K: Dmajor
zAde fdAF|GBde fdeB|.d2B2 ~B2AB|AFED ABGF|
DAde f/e/d AF|GBde faef|dBBD ~B2AB|AFGF D3z:|
~F3G AFGA|BGDB ~G2A2|B3c dz de|fdA2- ABG2|
~F3G AFGA|BGDB ~G2A2|BA~A2 BA~A2|BAFE D3z|
~F3G AFGA|GFGA ~G2A2|B3c dAde|f/e/d c2- cdAG|
~F3G AFGA|BGDB ~G2A2|BA~A2 BA~A2|BAFE D3z||

